static/assets/images/networks/allora.svg

<svg width="256" height="256" viewBox="0 0 256 256" fill="none" xmlns="http://www.w3.org/2000/svg">
<path d="M128 256C198.692 256 256 198.692 256 128C256 57.3077 198.692 0 128 0C57.3077 0 0 57.3077 0 128C0 198.692 57.3077 256 128 256Z" fill="white"/>
<path d="M193.823 147.908C195.654 141.882 196.651 135.495 196.651 128.881C196.651 128.147 196.624 127.425 196.597 126.69C170.327 111.485 150.518 78.9093 142.226 63.4507C137.746 62.5424 133.101 62.0741 128.347 62.0741C123.593 62.0741 119.262 62.5291 114.918 63.3701C111.217 70.2112 105.247 80.4331 97.4053 91.0283C88.3616 103.254 75.3973 117.871 60.0976 126.744C60.0704 127.452 60.0432 128.16 60.0432 128.881C60.0432 135.509 61.04 141.909 62.8843 147.948C74.2363 142.724 84.5371 134.988 93.5936 126.262C87.1323 141.214 79.9328 155.724 72.4331 167.228C76.4768 172.867 81.3947 177.865 86.9824 182.033C95.1781 170.301 103.457 154.869 111.763 135.803C108.826 155.418 104.563 172.587 98.416 188.954C104.509 191.867 111.121 193.911 118.074 194.94C122.473 183.957 125.943 173.041 128.675 158.837C131.42 172.988 134.905 183.877 139.303 194.82C146.229 193.724 152.8 191.613 158.851 188.647C152.909 172.867 148.73 156.325 145.779 137.285C153.838 155.618 161.885 170.516 169.835 181.926C175.422 177.744 180.326 172.72 184.357 167.068C176.911 155.604 169.767 141.201 163.346 126.356C172.335 135.028 182.54 142.71 193.81 147.908H193.823Z" fill="#171717"/>
<path fill-rule="evenodd" clip-rule="evenodd" d="M128.004 42.3443C80.696 42.3443 42.3455 80.6949 42.3455 128.003C42.3455 175.31 80.696 213.661 128.004 213.661C175.311 213.661 213.662 175.31 213.662 128.003C213.662 80.6949 175.311 42.3443 128.004 42.3443ZM21.3372 128.003C21.3372 69.0923 69.0933 21.3359 128.004 21.3359C186.914 21.3359 234.67 69.0923 234.67 128.003C234.67 186.913 186.914 234.669 128.004 234.669C69.0933 234.669 21.3372 186.913 21.3372 128.003Z" fill="#171717"/>
</svg>

<svg xmlns="http://www.w3.org/2000/svg" fill="none" viewBox="0 0 256 256"><path fill="#fff" d="M128 256c70.692 0 128-57.308 128-128S198.692 0 128 0 0 57.308 0 128s57.308 128 128 128"/><path fill="#171717" d="M193.823 147.908a65.4 65.4 0 0 0 2.828-19.027c0-.734-.027-1.456-.054-2.191-26.27-15.205-46.079-47.78-54.371-63.24a70 70 0 0 0-13.879-1.376c-4.754 0-9.085.455-13.429 1.296-3.701 6.841-9.671 17.063-17.513 27.658-9.043 12.226-22.008 26.843-37.307 35.716a55 55 0 0 0-.055 2.137c0 6.628.997 13.028 2.841 19.067 11.352-5.224 21.653-12.96 30.71-21.686-6.462 14.952-13.661 29.462-21.16 40.966a67.8 67.8 0 0 0 14.548 14.805c8.196-11.732 16.475-27.164 24.781-46.23-2.937 19.615-7.2 36.784-13.347 53.151a69 69 0 0 0 19.658 5.986c4.399-10.983 7.869-21.899 10.601-36.103 2.745 14.151 6.23 25.04 10.628 35.983a68.8 68.8 0 0 0 19.548-6.173c-5.942-15.78-10.121-32.322-13.072-51.362 8.059 18.333 16.106 33.231 24.056 44.641a67.6 67.6 0 0 0 14.522-14.858c-7.446-11.464-14.59-25.867-21.011-40.712 8.989 8.672 19.194 16.354 30.464 21.552z"/><path fill="#171717" fill-rule="evenodd" d="M128.004 42.344c-47.308 0-85.658 38.35-85.658 85.659 0 47.307 38.35 85.658 85.658 85.658s85.658-38.351 85.658-85.658-38.351-85.659-85.658-85.659M21.337 128.003c0-58.91 47.756-106.667 106.667-106.667 58.91 0 106.666 47.756 106.666 106.667 0 58.91-47.756 106.666-106.666 106.666S21.337 186.913 21.337 128.003" clip-rule="evenodd"/></svg>
